X:1
T:Angel’s Song (Pilgrimage), 87.87
T:Angel’s Song (Pilgrimage), 87.87
T:Possibly by Horace Lorenzo Hastings, 1861
T:Public Domain Courtesy of the Cyber Hymnal™
C:Possibly by Horace Lorenzo Hastings, 1861
Z:Public Domain
Z:Courtesy of the Cyber Hymnal™
%%score ( 1 2 ) ( 3 4 )
L:1/8
Q:1/4=102
M:4/4
K:C
V:1 treble 
V:2 treble 
V:3 bass 
V:4 bass 
V:1
 C3 (C/E/) [EG]3 ([Ec]/[Gd]/) | [Ge]3 [Fd] [Fc] [FA]3 | [Fc]3 (d/c/) [FA]3 [Fc] | %3
 [DG]3 [CE] [B,D]2 z2 | [EG]3 ([Ec]/[Gd]/) [Ge]3 (c/e/) | [Gg]3 [Ge] [Fd] [Ec]3 | %6
 [Ge]3 (d/c/) [FA]3 ([Ec]/[Gd]/) | !fermata![Ge]3 !fermata!d !fermata![Ec]4 |] %8
V:2
 C3 C/E/ x4 | x8 | x3 F x4 | x8 | x7 G | x8 | x3 F x4 | x3 G/F/ x4 |] %8
V:3
 [C,E,]3 (E,/G,/) [C,C]3 ([A,C]/[G,B,]/) | [C,C]3 [F,A,] [F,A,] [F,D]3 | %2
 [F,A,]3 [F,A,] [F,C]3 [A,,A,] | [B,,G,]3 [C,G,] G,2 z2 | [C,C]3 ([A,C]/[G,B,]/) [C,C]3 C | %5
 [G,,B,]3 [G,C] [G,B,] [C,C]3 | [C,C]3 [F,A,] [F,C]3 ([A,C]/[G,B,]/) | %7
 !fermata![A,C]3 !fermata![G,B,] !fermata![C,C]4 |] %8
V:4
 x3 C, x4 | x8 | x8 | x4 G,2 x2 | x7 (E,/C,/) | x8 | x8 | x8 |] %8

